packages/calcite-ui-icons/icons/shapes-2d-3d-16.svg

<?xml version="1.0" encoding="UTF-8"?><svg id="icons" xmlns="http://www.w3.org/2000/svg" viewBox="0 0 16 16"><defs><style>.cls-1{fill:none;}</style></defs><rect class="cls-1" width="16" height="16"/><path d="M1.16663,15h8.1424l1.79926-3.59869-5.23199-5.23199L1.16663,15ZM9.8916,11.59869l-.84088,1.68176-1.68182-4.20447,2.52271,2.52271ZM8.26141,14H2.83331l3.10181-5.81592,2.32629,5.81592ZM15,4v8h-1.47882l-1-1h1.47882v-6h-6v1.47888l-1-1v-1.47888h8ZM1.00812,5C1.00812,2.79395,2.80206,1,5.00812,1c1.47418,0,2.75.81018,3.44379,2h-1.22406c-.5495-.60931-1.33655-1-2.21973-1-1.6543,0-3,1.3457-3,3,0,1.25934.78186,2.33545,1.88403,2.7796l-.47327.88739c-1.41644-.61621-2.41077-2.02606-2.41077-3.66699Z"/></svg>

<svg xmlns="http://www.w3.org/2000/svg" viewBox="0 0 16 16"><path fill="none" d="M0 0h16v16H0z"/><path d="M1.167 15h8.142l1.8-3.599L5.875 6.17 1.166 15zm8.725-3.401L9.05 13.28 7.369 9.076l2.523 2.523zM8.262 14h-5.43l3.102-5.816L8.261 14zM15 4v8h-1.479l-1-1H14V5H8v1.479l-1-1V4h8zM1.008 5c0-2.206 1.794-4 4-4 1.474 0 2.75.81 3.444 2H7.228c-.55-.61-1.337-1-2.22-1-1.654 0-3 1.346-3 3a3 3 0 0 0 1.884 2.78l-.473.887A4.003 4.003 0 0 1 1.009 5z"/></svg>
